X: 1431
T: Nağme-i Uzzâl`i Azletmiş İdi
C: Ahmet Avni Konuk
O: Turkey
F: http://compmusic.upf.edu/node/140
N: hicaz-uzzal--kupe--duyek--nagme-i--ahmet_avni_konuk
N: makam= hicaz-uzzal
N: form= kupe
N: usul= duyek = 8/4
M: 8/4
L: 1/16
K: C _7/8B ^f ^c 
Q: 1/4=57
%%MIDI tuningsystem comma53
z4 A4 A4 e2=f2 e2d2 ^3/4c2d2 e8  | \
w:  Nağ *  me  *  i  *  *  *  Uz  | 
z4 d4 ^3/4f4 f4 f3^3/4e d2e2 f2fe f4  | 
w:  zâ *  li  azl_ *  *  *  et  | 
z4 e2d2 ^3/4c4 d4 e8 e4 {=f}e2f2  | \
w:  miş  *  *  i di  ehl_  | 
e2d2 e3d ^3/4c4 d4 e4 {=f}e2d2 g2^2/4fe e4  | 
w:  *  *  i  *  *  ma kam    | 
z4 ^3/4f8 f4 e2f2 g2a2 a2g2 f2e2  | \
w:  Kâ rı mız *  *  *  da   | 
d4 g4 =f4 e2f2 e2d2 d2f2 e2d2 ^3/4c2B2  | 
w:  *  yol  *  bu *  lup  *  *  *  ver  | 
A4 A2G2 A4 B4 ^3/4c6=f2 e2d2 c2B2  | \
w:  *  dik  *  *  o  mâ *  zû  | 
A4 ^3/4c2d2 e4 d2c2 c2B2 B2A2 A6z2  | 
w:  *  le  *  *  ma *  kam    | 
|


